; G-Code generated by Simplify3D(R) Version 3.1.1
; ene 14, 2018 at 1:52:57 
; Settings Summary
;   processName,Process1
;   applyToModels,Pulsador Esfera Pequeño
;   profileName,PLA
;   profileVersion,2017-12-23 11:31:10
;   baseProfile,Default
;   printMaterial,PLA
;   printQuality,Medium
;   printExtruders,
;   extruderName,Primary Extruder
;   extruderToolheadNumber,0
;   extruderDiameter,0.4
;   extruderAutoWidth,1
;   extruderWidth,0.48
;   extrusionMultiplier,0.9
;   extruderUseRetract,1
;   extruderRetractionDistance,1.5
;   extruderExtraRestartDistance,0
;   extruderRetractionZLift,0.6
;   extruderRetractionSpeed,4200
;   extruderUseCoasting,1
;   extruderCoastingDistance,0.6
;   extruderUseWipe,0
;   extruderWipeDistance,5
;   primaryExtruder,0
;   layerHeight,0.2
;   topSolidLayers,12
;   bottomSolidLayers,6
;   perimeterOutlines,4
;   printPerimetersInsideOut,1
;   startPointOption,2
;   startPointOriginX,0
;   startPointOriginY,0
;   startPointOriginZ,300
;   sequentialIslands,0
;   spiralVaseMode,0
;   firstLayerHeightPercentage,80
;   firstLayerWidthPercentage,120
;   firstLayerUnderspeed,0.5
;   useRaft,0
;   raftExtruder,0
;   raftLayers,3
;   raftOffset,3
;   raftSeparationDistance,0.14
;   raftInfill,85
;   disableRaftBaseLayers,0
;   useSkirt,1
;   skirtExtruder,0
;   skirtLayers,1
;   skirtOutlines,2
;   skirtOffset,4
;   usePrimePillar,0
;   primePillarExtruder,999
;   primePillarWidth,12
;   primePillarLocation,7
;   primePillarSpeedMultiplier,1
;   useOozeShield,0
;   oozeShieldExtruder,999
;   oozeShieldOffset,2
;   oozeShieldOutlines,1
;   oozeShieldSidewallShape,1
;   oozeShieldSidewallAngle,30
;   oozeShieldSpeedMultiplier,1
;   infillExtruder,0
;   internalInfillPattern,Triangular
;   externalInfillPattern,Rectilinear
;   infillPercentage,30
;   outlineOverlapPercentage,25
;   infillExtrusionWidthPercentage,150
;   minInfillLength,0
;   infillLayerInterval,1
;   infillAngles,0,60,-60
;   overlapInfillAngles,1
;   generateSupport,0
;   supportExtruder,0
;   supportInfillPercentage,50
;   supportExtraInflation,0
;   denseSupportLayers,0
;   denseSupportInfillPercentage,60
;   supportLayerInterval,1
;   supportHorizontalPartOffset,0.3
;   supportUpperSeparationLayers,1
;   supportLowerSeparationLayers,1
;   supportType,0
;   supportGridSpacing,4
;   maxOverhangAngle,45
;   supportAngles,0
;   temperatureName,Primary Extruder,Cama Caliente
;   temperatureNumber,0,1
;   temperatureSetpointCount,1,1
;   temperatureSetpointLayers,1,1
;   temperatureSetpointTemperatures,210,40
;   temperatureStabilizeAtStartup,1,1
;   temperatureHeatedBed,0,1
;   temperatureRelayBetweenLayers,0,0
;   temperatureRelayBetweenLoops,0,0
;   fanLayers,1,2
;   fanSpeeds,0,100
;   blipFanToFullPower,0
;   adjustSpeedForCooling,1
;   minSpeedLayerTime,15
;   minCoolingSpeedSlowdown,35
;   increaseFanForCooling,0
;   minFanLayerTime,45
;   maxCoolingFanSpeed,100
;   increaseFanForBridging,0
;   bridgingFanSpeed,100
;   use5D,1
;   relativeEdistances,0
;   allowEaxisZeroing,1
;   independentExtruderAxes,0
;   includeM10123,0
;   stickySupport,1
;   applyToolheadOffsets,0
;   gcodeXoffset,0
;   gcodeYoffset,0
;   gcodeZoffset,0
;   overrideMachineDefinition,1
;   machineTypeOverride,0
;   strokeXoverride,210
;   strokeYoverride,190
;   strokeZoverride,180
;   originOffsetXoverride,0
;   originOffsetYoverride,0
;   originOffsetZoverride,0
;   homeXdirOverride,-1
;   homeYdirOverride,-1
;   homeZdirOverride,-1
;   flipXoverride,1
;   flipYoverride,-1
;   flipZoverride,1
;   toolheadOffsets,0,0|0,0|0,0|0,0|0,0|0,0
;   overrideFirmwareConfiguration,0
;   firmwareTypeOverride,RepRap (Marlin/Repetier/Sprinter)
;   GPXconfigOverride,r2
;   baudRateOverride,250000
;   overridePrinterModels,0
;   printerModelsOverride
;   startingGcode,G21 ; metric values,G90 ;absolute positioning,M82 ;set extruder to absolute mode,G28 X0 Y0 ;move  X/Y to min endstops,G28 Z0 ;move Z to min endstops,G92 E0 ;zero the extruded length,G1 Z5 ;move nozzle close to bed,M117 Imprimiendo...;put printing message on LCD screen
;   layerChangeGcode,
;   retractionGcode,
;   toolChangeGcode,
;   endingGcode,G10 ;,G92 Z0 ;,G1 Z5 ;,G1 X0 Y0 ;move X/Y to min endstops,M104 S0 ; turn off extruder,M140 S0 ; turn off bed,M84 ; disable motors
;   exportFileFormat,gcode
;   celebration,0
;   celebrationSong,Random Song
;   postProcessing,
;   defaultSpeed,3600
;   outlineUnderspeed,0.5
;   solidInfillUnderspeed,0.8
;   supportUnderspeed,0.7
;   rapidXYspeed,6000
;   rapidZspeed,1002
;   minBridgingArea,50
;   bridgingExtraInflation,0
;   bridgingExtrusionMultiplier,1
;   bridgingSpeedMultiplier,1
;   filamentDiameter,1.75
;   filamentPricePerKg,46
;   filamentDensity,1.25
;   useMinPrintHeight,0
;   minPrintHeight,0
;   useMaxPrintHeight,0
;   maxPrintHeight,0
;   useDiaphragm,0
;   diaphragmLayerInterval,20
;   robustSlicing,1
;   mergeAllIntoSolid,0
;   onlyRetractWhenCrossingOutline,1
;   retractBetweenLayers,0
;   useRetractionMinTravel,1
;   retractionMinTravel,3
;   retractWhileWiping,0
;   onlyWipeOutlines,1
;   avoidCrossingOutline,0
;   maxMovementDetourFactor,3
;   toolChangeRetractionDistance,12
;   toolChangeExtraRestartDistance,-0.5
;   toolChangeRetractionSpeed,600
;   allowThinWallGapFill,1
;   thinWallAllowedOverlapPercentage,25
;   horizontalSizeCompensation,0
G90
M82
M106 S0
M140 S40
M190 S40
M104 S210 T0
M109 S210 T0
G21 ; metric values
G90 ;absolute positioning
M82 ;set extruder to absolute mode
G28 X0 Y0 ;move  X/Y to min endstops
G28 Z0 ;move Z to min endstops
G92 E0 ;zero the extruded length
G1 Z5 ;move nozzle close to bed
M117 Imprimiendo...;put printing message on LCD screen
G92 E0
G1 E-1.5000 F4200
G1 Z0.760 F1002
; layer 1, Z = 0.16
T0
; tool H0.200 W0.576
; skirt
G1 X71.050 Y67.275 F6000
G1 Z0.160 F1002
G1 E0.0000 F1260
G92 E0
G1 X77.275 Y61.050 E0.3795 F1800
G1 X77.393 Y60.971 E0.3856
G1 X78.994 Y60.308 E0.4603
G1 X79.133 Y60.280 E0.4664
G1 X130.867 Y60.280 E2.6964
G1 X131.006 Y60.308 E2.7025
G1 X132.607 Y60.971 E2.7772
G1 X132.725 Y61.050 E2.7833
G1 X138.950 Y67.275 E3.1628
G1 X139.029 Y67.393 E3.1690
G1 X139.692 Y68.994 E3.2437
G1 X139.720 Y69.133 E3.2498
G1 X139.720 Y120.867 E5.4797
G1 X139.692 Y121.006 E5.4859
G1 X139.029 Y122.607 E5.5606
G1 X138.950 Y122.725 E5.5667
G1 X132.725 Y128.950 E5.9462
G1 X132.607 Y129.029 E5.9523
G1 X131.006 Y129.692 E6.0270
G1 X130.867 Y129.720 E6.0331
G1 X79.133 Y129.720 E8.2631
G1 X78.994 Y129.692 E8.2692
G1 X77.393 Y129.029 E8.3439
G1 X77.275 Y128.950 E8.3500
G1 X71.050 Y122.725 E8.7295
G1 X70.971 Y122.607 E8.7356
G1 X70.308 Y121.006 E8.8103
G1 X70.280 Y120.867 E8.8165
G1 X70.280 Y69.133 E11.0464
G1 X70.308 Y68.994 E11.0525
G1 X70.796 Y67.816 E11.1075
G1 X70.971 Y67.393 F1800
G1 X71.050 Y67.275 F1800
G1 X71.423 Y67.581 F6000
G92 E0
G1 X77.581 Y61.423 E0.3754 F1800
G1 X77.620 Y61.396 E0.3775
G1 X79.134 Y60.769 E0.4481
G1 X79.181 Y60.760 E0.4501
G1 X130.819 Y60.760 E2.6760
G1 X130.866 Y60.769 E2.6781
G1 X132.380 Y61.396 E2.7487
G1 X132.419 Y61.423 E2.7507
G1 X138.577 Y67.581 E3.1262
G1 X138.604 Y67.620 E3.1282
G1 X139.231 Y69.134 E3.1988
G1 X139.240 Y69.181 E3.2009
G1 X139.240 Y120.819 E5.4268
G1 X139.231 Y120.866 E5.4288
G1 X138.604 Y122.379 E5.4994
G1 X138.577 Y122.419 E5.5015
G1 X132.419 Y128.577 E5.8769
G1 X132.380 Y128.604 E5.8789
G1 X130.866 Y129.231 E5.9496
G1 X130.819 Y129.240 E5.9516
G1 X79.181 Y129.240 E8.1775
G1 X79.134 Y129.231 E8.1795
G1 X77.620 Y128.604 E8.2502
G1 X77.581 Y128.577 E8.2522
G1 X71.423 Y122.419 E8.6276
G1 X71.396 Y122.379 E8.6297
G1 X70.769 Y120.866 E8.7003
G1 X70.760 Y120.819 E8.7023
G1 X70.760 Y69.181 E10.9282
G1 X70.769 Y69.134 E10.9303
G1 X71.185 Y68.131 E10.9771
G1 X71.396 Y67.620 F1800
G1 X71.423 Y67.581 F1800
G92 E0
G1 E-1.5000 F4200
G1 Z0.760 F1002
; inner perimeter
G1 X77.016 Y70.835 F6000
G1 Z0.160 F1002
G1 E0.0000 F4200
G92 E0
G1 X80.835 Y67.016 E0.2328 F1575
G1 X129.165 Y67.016 E2.3161
G1 X132.984 Y70.835 E2.5489
G1 X132.984 Y119.165 E4.6322
G1 X129.165 Y122.984 E4.8650
G1 X80.835 Y122.984 E6.9482
G1 X77.016 Y119.165 E7.1810
G1 X77.016 Y71.435 E9.2384
G1 X77.016 Y70.835 F1575
; inner perimeter
G1 X76.440 Y70.596 F6000
G92 E0
G1 X80.596 Y66.440 E0.2534 F1350
G1 X129.404 Y66.440 E2.3572
G1 X133.560 Y70.596 E2.6106
G1 X133.560 Y119.404 E4.7144
G1 X129.404 Y123.560 E4.9678
G1 X80.596 Y123.560 E7.0716
G1 X76.440 Y119.404 E7.3250
G1 X76.440 Y71.196 E9.4030
G1 X76.440 Y70.596 F1350
; inner perimeter
G1 X75.864 Y70.358 F6000
G92 E0
G1 X80.358 Y65.864 E0.2739 F1125
G1 X129.642 Y65.864 E2.3984
G1 X134.136 Y70.358 E2.6723
G1 X134.136 Y119.642 E4.7967
G1 X129.642 Y124.136 E5.0706
G1 X80.358 Y124.136 E7.1951
G1 X75.864 Y119.642 E7.4690
G1 X75.864 Y70.958 E9.5675
G1 X75.864 Y70.358 F1125
; outer perimeter
G1 X75.288 Y70.119 F6000
G92 E0
G1 X80.119 Y65.288 E0.2945 F900
G1 X129.881 Y65.288 E2.4395
G1 X134.712 Y70.119 E2.7340
G1 X134.712 Y119.881 E4.8790
G1 X129.881 Y124.712 E5.1735
G1 X80.119 Y124.712 E7.3185
G1 X75.288 Y119.881 E7.6130
G1 X75.288 Y70.719 E9.7321
G1 X75.288 Y70.119 F900
; inner perimeter
G1 X82.435 Y74.145 F6000
G92 E0
G1 X82.196 Y74.687 E0.0255 F1575
G1 X82.043 Y75.266 E0.0513
G1 X81.990 Y75.651 E0.0681
G1 X81.976 Y76.240 E0.0935
G1 X82.055 Y76.826 E0.1190
G1 X82.153 Y77.208 E0.1360
G1 X82.367 Y77.760 E0.1615
G1 X82.664 Y78.271 E0.1870
G1 X82.902 Y78.587 E0.2040
G1 X83.315 Y79.020 E0.2298
G1 X83.788 Y79.379 E0.2554
G1 X84.129 Y79.578 E0.2724
G1 X84.634 Y79.800 E0.2962
G1 X85.011 Y79.915 E0.3132
G1 X85.593 Y80.020 E0.3387
G1 X86.185 Y80.032 E0.3642
G1 X86.578 Y79.994 E0.3812
G1 X87.155 Y79.867 E0.4067
G1 X87.706 Y79.652 E0.4322
G1 X88.055 Y79.467 E0.4492
G1 X88.508 Y79.152 E0.4730
G1 X88.803 Y78.890 E0.4900
G1 X89.191 Y78.455 E0.5152
G1 X89.532 Y77.926 E0.5423
G1 X89.771 Y77.385 E0.5678
G1 X89.887 Y77.007 E0.5848
G1 X89.986 Y76.465 E0.6086
G1 X90.011 Y76.071 E0.6256
G1 X89.978 Y75.480 E0.6511
G1 X89.845 Y74.863 E0.6783
G1 X89.631 Y74.312 E0.7038
G1 X89.446 Y73.963 E0.7208
G1 X89.110 Y73.476 E0.7463
G1 X88.668 Y73.014 E0.7739
G1 X88.164 Y72.632 E0.8011
G1 X87.643 Y72.353 E0.8266
G1 X87.275 Y72.208 E0.8436
G1 X86.703 Y72.058 E0.8691
G1 X86.115 Y72.000 E0.8946
G1 X85.720 Y72.007 E0.9117
G1 X85.173 Y72.082 E0.9354
G1 X84.791 Y72.181 E0.9525
G1 X84.240 Y72.396 E0.9779
G1 X83.695 Y72.715 E1.0052
G1 X83.208 Y73.115 E1.0323
G1 X82.819 Y73.550 E1.0575
G1 X82.757 Y73.639 E1.0622
G1 X82.616 Y73.839 F1575
G1 X82.435 Y74.145 F1575
; inner perimeter
G1 X82.949 Y74.409 F6000
G92 E0
G1 X82.742 Y74.878 E0.0221 F1350
G1 X82.609 Y75.379 E0.0445
G1 X82.565 Y75.698 E0.0583
G1 X82.553 Y76.208 E0.0803
G1 X82.621 Y76.715 E0.1024
G1 X82.703 Y77.032 E0.1165
G1 X82.888 Y77.509 E0.1385
G1 X83.145 Y77.952 E0.1606
G1 X83.342 Y78.214 E0.1747
G1 X83.700 Y78.589 E0.1971
G1 X84.109 Y78.899 E0.2192
G1 X84.391 Y79.065 E0.2333
G1 X84.834 Y79.259 E0.2542
G1 X85.147 Y79.354 E0.2683
G1 X85.651 Y79.445 E0.2903
G1 X86.163 Y79.455 E0.3124
G1 X86.488 Y79.424 E0.3265
G1 X86.988 Y79.314 E0.3486
G1 X87.465 Y79.128 E0.3706
G1 X87.754 Y78.974 E0.3847
G1 X88.151 Y78.698 E0.4056
G1 X88.395 Y78.482 E0.4196
G1 X88.731 Y78.105 E0.4414
G1 X89.024 Y77.652 E0.4647
G1 X89.231 Y77.183 E0.4867
G1 X89.327 Y76.871 E0.5008
G1 X89.413 Y76.395 E0.5217
G1 X89.434 Y76.069 E0.5358
G1 X89.405 Y75.557 E0.5578
G1 X89.291 Y75.029 E0.5811
G1 X89.106 Y74.552 E0.6032
G1 X88.953 Y74.263 E0.6173
G1 X88.662 Y73.841 E0.6394
G1 X88.284 Y73.446 E0.6630
G1 X87.852 Y73.118 E0.6863
G1 X87.401 Y72.876 E0.7084
G1 X87.096 Y72.757 E0.7225
G1 X86.601 Y72.627 E0.7446
G1 X86.091 Y72.576 E0.7667
G1 X85.764 Y72.582 E0.7807
G1 X85.285 Y72.648 E0.8016
G1 X84.969 Y72.730 E0.8157
G1 X84.492 Y72.916 E0.8378
G1 X84.025 Y73.189 E0.8611
G1 X83.607 Y73.532 E0.8843
G1 X83.274 Y73.905 E0.9059
G1 X83.271 Y73.909 F1350
G1 X83.100 Y74.152 F1350
G1 X82.949 Y74.409 F1350
; inner perimeter
G1 X83.462 Y74.673 F6000
G92 E0
G1 X83.287 Y75.069 E0.0187 F1125
G1 X83.175 Y75.493 E0.0376
G1 X83.140 Y75.744 E0.0485
G1 X83.130 Y76.176 E0.0671
G1 X83.188 Y76.605 E0.0858
G1 X83.252 Y76.855 E0.0969
G1 X83.408 Y77.259 E0.1156
G1 X83.626 Y77.633 E0.1342
G1 X83.782 Y77.840 E0.1454
G1 X84.085 Y78.158 E0.1643
G1 X84.430 Y78.420 E0.1830
G1 X84.653 Y78.551 E0.1942
G1 X85.034 Y78.718 E0.2121
G1 X85.282 Y78.793 E0.2233
G1 X85.708 Y78.870 E0.2419
G1 X86.141 Y78.879 E0.2606
G1 X86.398 Y78.854 E0.2717
G1 X86.821 Y78.761 E0.2904
G1 X87.224 Y78.604 E0.3091
G1 X87.453 Y78.482 E0.3202
G1 X87.794 Y78.245 E0.3381
G1 X87.988 Y78.073 E0.3493
G1 X88.272 Y77.755 E0.3677
G1 X88.515 Y77.377 E0.3870
G1 X88.690 Y76.982 E0.4057
G1 X88.766 Y76.734 E0.4168
G1 X88.840 Y76.325 E0.4348
G1 X88.857 Y76.067 E0.4459
G1 X88.833 Y75.635 E0.4646
G1 X88.738 Y75.195 E0.4840
G1 X88.582 Y74.791 E0.5026
G1 X88.460 Y74.562 E0.5138
G1 X88.214 Y74.206 E0.5325
G1 X87.899 Y73.877 E0.5521
G1 X87.540 Y73.604 E0.5715
G1 X87.158 Y73.400 E0.5902
G1 X86.917 Y73.305 E0.6013
G1 X86.499 Y73.196 E0.6200
G1 X86.068 Y73.153 E0.6387
G1 X85.809 Y73.158 E0.6498
G1 X85.397 Y73.214 E0.6677
G1 X85.147 Y73.279 E0.6789
G1 X84.743 Y73.437 E0.6976
G1 X84.355 Y73.664 E0.7169
G1 X84.007 Y73.949 E0.7363
G1 X83.801 Y74.180 E0.7497
G1 X83.723 Y74.267 F1125
G1 X83.585 Y74.464 F1125
G1 X83.462 Y74.673 F1125
; outer perimeter
G1 X83.975 Y74.936 F6000
G92 E0
G1 X83.832 Y75.260 E0.0152 F900
G1 X83.741 Y75.607 E0.0307
G1 X83.715 Y75.791 E0.0387
G1 X83.707 Y76.144 E0.0539
G1 X83.754 Y76.494 E0.0692
G1 X83.801 Y76.679 E0.0774
G1 X83.929 Y77.009 E0.0926
G1 X84.107 Y77.314 E0.1079
G1 X84.222 Y77.467 E0.1161
G1 X84.469 Y77.726 E0.1316
G1 X84.751 Y77.940 E0.1468
G1 X84.916 Y78.037 E0.1551
G1 X85.234 Y78.177 E0.1701
G1 X85.417 Y78.232 E0.1783
G1 X85.765 Y78.295 E0.1935
G1 X86.119 Y78.302 E0.2088
G1 X86.309 Y78.284 E0.2170
G1 X86.654 Y78.208 E0.2322
G1 X86.983 Y78.080 E0.2475
G1 X87.152 Y77.990 E0.2557
G1 X87.437 Y77.791 E0.2707
G1 X87.580 Y77.665 E0.2789
G1 X87.812 Y77.405 E0.2939
G1 X88.006 Y77.103 E0.3094
G1 X88.149 Y76.780 E0.3246
G1 X88.205 Y76.597 E0.3329
G1 X88.268 Y76.255 E0.3479
G1 X88.280 Y76.065 E0.3561
G1 X88.260 Y75.712 E0.3713
G1 X88.184 Y75.361 E0.3868
G1 X88.057 Y75.031 E0.4020
G1 X87.967 Y74.862 E0.4103
G1 X87.766 Y74.571 E0.4255
G1 X87.514 Y74.308 E0.4412
G1 X87.228 Y74.091 E0.4567
G1 X86.916 Y73.924 E0.4720
G1 X86.739 Y73.854 E0.4802
G1 X86.397 Y73.764 E0.4954
G1 X86.045 Y73.729 E0.5107
G1 X85.854 Y73.733 E0.5189
G1 X85.509 Y73.780 E0.5339
G1 X85.324 Y73.828 E0.5421
G1 X84.995 Y73.957 E0.5574
G1 X84.685 Y74.138 E0.5729
G1 X84.407 Y74.366 E0.5883
G1 X84.328 Y74.454 E0.5934
G1 X84.176 Y74.625 F900
G1 X84.069 Y74.777 F900
G1 X83.975 Y74.936 F900
G92 E0
G1 E-1.5000 F4200
G1 Z0.760 F1002
; inner perimeter
G1 X90.457 Y82.536 F6000
G1 Z0.160 F1002
G1 E0.0000 F4200
G92 E0
G1 X89.534 Y83.711 E0.0644 F1575
G1 X88.706 Y84.956 E0.1289
G1 X87.978 Y86.262 E0.1933
G1 X87.355 Y87.620 E0.2577
G1 X86.840 Y89.024 E0.3222
G1 X86.437 Y90.463 E0.3866
G1 X86.149 Y91.930 E0.4510
G1 X85.976 Y93.415 E0.5155
G1 X85.920 Y94.909 E0.5799
G1 X85.982 Y96.402 E0.6443
G1 X86.160 Y97.886 E0.7088
G1 X86.455 Y99.352 E0.7732
G1 X86.864 Y100.790 E0.8376
G1 X87.384 Y102.191 E0.9021
G1 X88.012 Y103.547 E0.9665
G1 X88.745 Y104.850 E1.0309
G1 X89.578 Y106.091 E1.0954
G1 X90.519 Y107.279 E1.1607
G1 X91.543 Y108.339 E1.2242
G1 X92.606 Y109.359 E1.2877
G1 X93.798 Y110.295 E1.3531
G1 X95.043 Y111.123 E1.4175
G1 X96.349 Y111.850 E1.4819
G1 X97.707 Y112.474 E1.5464
G1 X99.111 Y112.988 E1.6108
G1 X100.550 Y113.391 E1.6752
G1 X102.017 Y113.680 E1.7397
G1 X103.502 Y113.853 E1.8041
G1 X104.995 Y113.908 E1.8685
G1 X106.489 Y113.847 E1.9330
G1 X107.973 Y113.668 E1.9974
G1 X109.439 Y113.373 E2.0618
G1 X110.877 Y112.965 E2.1263
G1 X112.278 Y112.445 E2.1907
G1 X113.634 Y111.816 E2.2551
G1 X114.937 Y111.083 E2.3196
G1 X116.178 Y110.250 E2.3840
G1 X117.350 Y109.323 E2.4484
G1 X118.446 Y108.306 E2.5129
G1 X119.459 Y107.206 E2.5773
G1 X120.382 Y106.030 E2.6417
G1 X121.210 Y104.786 E2.7062
G1 X121.937 Y103.480 E2.7706
G1 X122.561 Y102.121 E2.8350
G1 X123.075 Y100.718 E2.8995
G1 X123.478 Y99.278 E2.9639
G1 X123.767 Y97.812 E3.0284
G1 X123.939 Y96.327 E3.0928
G1 X123.995 Y94.833 E3.1572
