; G-Code generated by Simplify3D(R) Version 3.1.1
; ene 14, 2018 at 1:56:57 
; Settings Summary
;   processName,Process1
;   applyToModels,Pulsador esfera Grande
;   profileName,PLA
;   profileVersion,2017-12-23 11:31:10
;   baseProfile,Default
;   printMaterial,PLA
;   printQuality,Medium
;   printExtruders,
;   extruderName,Primary Extruder
;   extruderToolheadNumber,0
;   extruderDiameter,0.4
;   extruderAutoWidth,1
;   extruderWidth,0.48
;   extrusionMultiplier,0.9
;   extruderUseRetract,1
;   extruderRetractionDistance,1.5
;   extruderExtraRestartDistance,0
;   extruderRetractionZLift,0.6
;   extruderRetractionSpeed,4200
;   extruderUseCoasting,1
;   extruderCoastingDistance,0.6
;   extruderUseWipe,0
;   extruderWipeDistance,5
;   primaryExtruder,0
;   layerHeight,0.2
;   topSolidLayers,12
;   bottomSolidLayers,6
;   perimeterOutlines,4
;   printPerimetersInsideOut,1
;   startPointOption,2
;   startPointOriginX,0
;   startPointOriginY,0
;   startPointOriginZ,300
;   sequentialIslands,0
;   spiralVaseMode,0
;   firstLayerHeightPercentage,80
;   firstLayerWidthPercentage,120
;   firstLayerUnderspeed,0.5
;   useRaft,0
;   raftExtruder,0
;   raftLayers,3
;   raftOffset,3
;   raftSeparationDistance,0.14
;   raftInfill,85
;   disableRaftBaseLayers,0
;   useSkirt,1
;   skirtExtruder,0
;   skirtLayers,1
;   skirtOutlines,5
;   skirtOffset,0
;   usePrimePillar,0
;   primePillarExtruder,999
;   primePillarWidth,12
;   primePillarLocation,7
;   primePillarSpeedMultiplier,1
;   useOozeShield,0
;   oozeShieldExtruder,999
;   oozeShieldOffset,2
;   oozeShieldOutlines,1
;   oozeShieldSidewallShape,1
;   oozeShieldSidewallAngle,30
;   oozeShieldSpeedMultiplier,1
;   infillExtruder,0
;   internalInfillPattern,Triangular
;   externalInfillPattern,Rectilinear
;   infillPercentage,30
;   outlineOverlapPercentage,25
;   infillExtrusionWidthPercentage,150
;   minInfillLength,0
;   infillLayerInterval,1
;   infillAngles,0,60,-60
;   overlapInfillAngles,1
;   generateSupport,0
;   supportExtruder,0
;   supportInfillPercentage,50
;   supportExtraInflation,0
;   denseSupportLayers,0
;   denseSupportInfillPercentage,60
;   supportLayerInterval,1
;   supportHorizontalPartOffset,0.3
;   supportUpperSeparationLayers,1
;   supportLowerSeparationLayers,1
;   supportType,0
;   supportGridSpacing,4
;   maxOverhangAngle,45
;   supportAngles,0
;   temperatureName,Primary Extruder,Cama Caliente
;   temperatureNumber,0,1
;   temperatureSetpointCount,1,1
;   temperatureSetpointLayers,1,1
;   temperatureSetpointTemperatures,210,40
;   temperatureStabilizeAtStartup,1,1
;   temperatureHeatedBed,0,1
;   temperatureRelayBetweenLayers,0,0
;   temperatureRelayBetweenLoops,0,0
;   fanLayers,1,2
;   fanSpeeds,0,100
;   blipFanToFullPower,0
;   adjustSpeedForCooling,1
;   minSpeedLayerTime,15
;   minCoolingSpeedSlowdown,35
;   increaseFanForCooling,0
;   minFanLayerTime,45
;   maxCoolingFanSpeed,100
;   increaseFanForBridging,0
;   bridgingFanSpeed,100
;   use5D,1
;   relativeEdistances,0
;   allowEaxisZeroing,1
;   independentExtruderAxes,0
;   includeM10123,0
;   stickySupport,1
;   applyToolheadOffsets,0
;   gcodeXoffset,0
;   gcodeYoffset,0
;   gcodeZoffset,0
;   overrideMachineDefinition,1
;   machineTypeOverride,0
;   strokeXoverride,210
;   strokeYoverride,190
;   strokeZoverride,180
;   originOffsetXoverride,0
;   originOffsetYoverride,0
;   originOffsetZoverride,0
;   homeXdirOverride,-1
;   homeYdirOverride,-1
;   homeZdirOverride,-1
;   flipXoverride,1
;   flipYoverride,-1
;   flipZoverride,1
;   toolheadOffsets,0,0|0,0|0,0|0,0|0,0|0,0
;   overrideFirmwareConfiguration,0
;   firmwareTypeOverride,RepRap (Marlin/Repetier/Sprinter)
;   GPXconfigOverride,r2
;   baudRateOverride,250000
;   overridePrinterModels,0
;   printerModelsOverride
;   startingGcode,G21 ; metric values,G90 ;absolute positioning,M82 ;set extruder to absolute mode,G28 X0 Y0 ;move  X/Y to min endstops,G28 Z0 ;move Z to min endstops,G92 E0 ;zero the extruded length,G1 Z5 ;move nozzle close to bed,M117 Imprimiendo...;put printing message on LCD screen
;   layerChangeGcode,
;   retractionGcode,
;   toolChangeGcode,
;   endingGcode,G10 ;,G92 Z0 ;,G1 Z5 ;,G1 X0 Y0 ;move X/Y to min endstops,M104 S0 ; turn off extruder,M140 S0 ; turn off bed,M84 ; disable motors
;   exportFileFormat,gcode
;   celebration,0
;   celebrationSong,Random Song
;   postProcessing,
;   defaultSpeed,3600
;   outlineUnderspeed,0.5
;   solidInfillUnderspeed,0.8
;   supportUnderspeed,0.7
;   rapidXYspeed,6000
;   rapidZspeed,1002
;   minBridgingArea,50
;   bridgingExtraInflation,0
;   bridgingExtrusionMultiplier,1
;   bridgingSpeedMultiplier,1
;   filamentDiameter,1.75
;   filamentPricePerKg,46
;   filamentDensity,1.25
;   useMinPrintHeight,0
;   minPrintHeight,0
;   useMaxPrintHeight,0
;   maxPrintHeight,0
;   useDiaphragm,0
;   diaphragmLayerInterval,20
;   robustSlicing,1
;   mergeAllIntoSolid,0
;   onlyRetractWhenCrossingOutline,1
;   retractBetweenLayers,0
;   useRetractionMinTravel,1
;   retractionMinTravel,3
;   retractWhileWiping,0
;   onlyWipeOutlines,1
;   avoidCrossingOutline,0
;   maxMovementDetourFactor,3
;   toolChangeRetractionDistance,12
;   toolChangeExtraRestartDistance,-0.5
;   toolChangeRetractionSpeed,600
;   allowThinWallGapFill,1
;   thinWallAllowedOverlapPercentage,25
;   horizontalSizeCompensation,0
G90
M82
M106 S0
M140 S40
M190 S40
M104 S210 T0
M109 S210 T0
G21 ; metric values
G90 ;absolute positioning
M82 ;set extruder to absolute mode
G28 X0 Y0 ;move  X/Y to min endstops
G28 Z0 ;move Z to min endstops
G92 E0 ;zero the extruded length
G1 Z5 ;move nozzle close to bed
M117 Imprimiendo...;put printing message on LCD screen
G92 E0
G1 E-1.5000 F4200
G1 Z0.760 F1002
; layer 1, Z = 0.16
T0
; tool H0.200 W0.576
; skirt
G1 X48.391 Y55.113 F6000
G1 Z0.160 F1002
G1 E0.0000 F1260
G92 E0
G1 X48.456 Y55.059 E0.0036 F1800
G1 X51.623 Y52.599 E0.1765
G1 X51.692 Y52.549 E0.1801
G1 X55.043 Y50.347 E0.3530
G1 X55.115 Y50.303 E0.3566
G1 X58.630 Y48.368 E0.5296
G1 X58.706 Y48.330 E0.5333
G1 X62.361 Y46.679 E0.7061
G1 X62.440 Y46.647 E0.7098
G1 X66.213 Y45.287 E0.8827
G1 X66.294 Y45.261 E0.8863
G1 X70.162 Y44.201 E1.0592
G1 X70.245 Y44.181 E1.0629
G1 X74.185 Y43.429 E1.2358
G1 X74.268 Y43.417 E1.2394
G1 X78.254 Y42.975 E1.4123
G1 X78.338 Y42.969 E1.4159
G1 X82.347 Y42.841 E1.5888
G1 X82.433 Y42.841 E1.5925
G1 X86.439 Y43.029 E1.7654
G1 X86.524 Y43.037 E1.7691
G1 X90.504 Y43.537 E1.9420
G1 X90.588 Y43.551 E1.9457
G1 X94.515 Y44.364 E2.1185
G1 X94.597 Y44.385 E2.1222
G1 X98.449 Y45.502 E2.2950
G1 X98.529 Y45.529 E2.2987
G1 X102.282 Y46.945 E2.4716
G1 X102.361 Y46.978 E2.4753
G1 X105.989 Y48.684 E2.6481
G1 X106.064 Y48.723 E2.6518
G1 X109.550 Y50.709 E2.8247
G1 X109.622 Y50.754 E2.8284
G1 X112.941 Y53.008 E3.0013
G1 X113.009 Y53.059 E3.0049
G1 X116.139 Y55.565 E3.1778
G1 X116.203 Y55.621 E3.1814
G1 X119.129 Y58.365 E3.3543
G1 X119.189 Y58.425 E3.3580
G1 X121.888 Y61.390 E3.5308
G1 X121.942 Y61.455 E3.5345
G1 X124.402 Y64.624 E3.7074
G1 X124.452 Y64.693 E3.7111
G1 X126.654 Y68.044 E3.8839
G1 X126.698 Y68.116 E3.8876
G1 X128.633 Y71.631 E4.0605
G1 X128.671 Y71.707 E4.0642
G1 X130.322 Y75.362 E4.2371
G1 X130.354 Y75.440 E4.2407
G1 X131.714 Y79.212 E4.4135
G1 X131.740 Y79.294 E4.4172
G1 X132.799 Y83.164 E4.5902
G1 X132.818 Y83.246 E4.5938
G1 X133.572 Y87.185 E4.7667
G1 X133.584 Y87.269 E4.7703
G1 X134.026 Y91.256 E4.9432
G1 X134.032 Y91.340 E4.9469
G1 X134.158 Y95.349 E5.1198
G1 X134.158 Y95.433 E5.1234
G1 X133.972 Y99.440 E5.2963
G1 X133.964 Y99.525 E5.3000
G1 X133.462 Y103.504 E5.4728
G1 X133.448 Y103.587 E5.4765
G1 X132.637 Y107.515 E5.6494
G1 X132.616 Y107.598 E5.6531
G1 X131.499 Y111.450 E5.8259
G1 X131.472 Y111.530 E5.8296
G1 X130.056 Y115.281 E6.0024
G1 X130.023 Y115.359 E6.0061
G1 X128.317 Y118.990 E6.1790
G1 X128.278 Y119.066 E6.1827
G1 X126.291 Y122.550 E6.3555
G1 X126.247 Y122.622 E6.3592
G1 X123.993 Y125.940 E6.5321
G1 X123.943 Y126.008 E6.5357
G1 X121.436 Y129.140 E6.7087
G1 X121.380 Y129.204 E6.7123
G1 X118.636 Y132.128 E6.8852
G1 X118.576 Y132.187 E6.8888
G1 X115.611 Y134.888 E7.0617
G1 X115.546 Y134.944 E7.0654
G1 X112.377 Y137.402 E7.2383
G1 X112.308 Y137.450 E7.2419
G1 X108.958 Y139.655 E7.4148
G1 X108.884 Y139.699 E7.4185
G1 X105.370 Y141.632 E7.5913
G1 X105.294 Y141.670 E7.5950
G1 X101.639 Y143.323 E7.7679
G1 X101.560 Y143.355 E7.7716
G1 X97.786 Y144.714 E7.9445
G1 X97.706 Y144.739 E7.9481
G1 X93.838 Y145.799 E8.1210
G1 X93.755 Y145.819 E8.1247
G1 X89.816 Y146.571 E8.2975
G1 X89.733 Y146.583 E8.3012
G1 X85.746 Y147.026 E8.4740
G1 X85.661 Y147.033 E8.4777
G1 X81.652 Y147.159 E8.6506
G1 X81.567 Y147.159 E8.6543
G1 X77.561 Y146.971 E8.8272
G1 X77.476 Y146.963 E8.8308
G1 X73.498 Y146.463 E9.0036
G1 X73.415 Y146.449 E9.0073
G1 X69.486 Y145.638 E9.1802
G1 X69.403 Y145.617 E9.1839
G1 X65.551 Y144.500 E9.3568
G1 X65.470 Y144.473 E9.3605
G1 X61.717 Y143.055 E9.5334
G1 X61.639 Y143.022 E9.5370
G1 X58.011 Y141.316 E9.7099
G1 X57.935 Y141.276 E9.7135
G1 X54.452 Y139.291 E9.8864
G1 X54.380 Y139.246 E9.8900
G1 X51.062 Y136.994 E10.0629
G1 X50.993 Y136.944 E10.0665
G1 X47.861 Y134.437 E10.2395
G1 X47.797 Y134.381 E10.2432
G1 X44.873 Y131.637 E10.4160
G1 X44.813 Y131.577 E10.4197
G1 X42.112 Y128.610 E10.5926
G1 X42.058 Y128.545 E10.5962
G1 X39.598 Y125.378 E10.7691
G1 X39.548 Y125.309 E10.7728
G1 X37.345 Y121.956 E10.9457
G1 X37.302 Y121.883 E10.9494
G1 X35.369 Y118.369 E11.1222
G1 X35.331 Y118.294 E11.1259
G1 X33.678 Y114.640 E11.2987
G1 X33.646 Y114.561 E11.3024
G1 X32.287 Y110.787 E11.4753
G1 X32.262 Y110.707 E11.4789
G1 X31.202 Y106.839 E11.6518
G1 X31.182 Y106.757 E11.6555
G1 X30.428 Y102.817 E11.8284
G1 X30.416 Y102.733 E11.8320
G1 X29.974 Y98.746 E12.0049
G1 X29.968 Y98.662 E12.0086
G1 X29.842 Y94.653 E12.1815
G1 X29.842 Y94.568 E12.1851
G1 X30.030 Y90.562 E12.3580
G1 X30.038 Y90.477 E12.3617
G1 X30.538 Y86.497 E12.5346
G1 X30.552 Y86.414 E12.5382
G1 X31.363 Y82.486 E12.7111
G1 X31.384 Y82.404 E12.7147
G1 X32.501 Y78.552 E12.8876
G1 X32.528 Y78.472 E12.8913
G1 X33.944 Y74.719 E13.0642
G1 X33.977 Y74.640 E13.0678
G1 X35.683 Y71.012 E13.2407
G1 X35.722 Y70.936 E13.2443
G1 X37.708 Y67.451 E13.4173
G1 X37.753 Y67.379 E13.4209
G1 X40.007 Y64.060 E13.5938
G1 X40.058 Y63.992 E13.5975
G1 X42.564 Y60.862 E13.7704
G1 X42.620 Y60.798 E13.7740
G1 X45.364 Y57.872 E13.9469
G1 X45.425 Y57.812 E13.9506
G1 X47.948 Y55.517 E14.0976
G1 X48.391 Y55.113 F1800
G1 X48.708 Y55.474 F6000
G92 E0
G1 X48.758 Y55.432 E0.0028 F1800
G1 X51.910 Y52.984 E0.1749
G1 X51.964 Y52.945 E0.1777
G1 X55.299 Y50.753 E0.3498
G1 X55.355 Y50.719 E0.3526
G1 X58.853 Y48.793 E0.5247
G1 X58.912 Y48.764 E0.5276
G1 X62.550 Y47.120 E0.6996
G1 X62.611 Y47.096 E0.7025
G1 X66.367 Y45.741 E0.8746
G1 X66.430 Y45.722 E0.8774
G1 X70.280 Y44.666 E1.0495
G1 X70.344 Y44.651 E1.0523
G1 X74.265 Y43.903 E1.2244
G1 X74.330 Y43.893 E1.2272
G1 X78.298 Y43.454 E1.3993
G1 X78.363 Y43.449 E1.4021
G1 X82.353 Y43.321 E1.5742
G1 X82.420 Y43.321 E1.5771
G1 X86.408 Y43.508 E1.7492
G1 X86.473 Y43.514 E1.7520
G1 X90.435 Y44.012 E1.9241
G1 X90.500 Y44.023 E1.9270
G1 X94.409 Y44.833 E2.0990
G1 X94.473 Y44.848 E2.1019
G1 X98.306 Y45.961 E2.2739
G1 X98.368 Y45.982 E2.2767
G1 X102.104 Y47.391 E2.4489
G1 X102.165 Y47.417 E2.4517
G1 X105.777 Y49.115 E2.6237
G1 X105.835 Y49.145 E2.6266
G1 X109.304 Y51.122 E2.7987
G1 X109.361 Y51.157 E2.8015
G1 X112.663 Y53.400 E2.9736
G1 X112.716 Y53.439 E2.9765
G1 X115.832 Y55.934 E3.1485
G1 X115.881 Y55.977 E3.1514
G1 X118.793 Y58.708 E3.3235
G1 X118.840 Y58.755 E3.3263
G1 X121.526 Y61.706 E3.4983
G1 X121.569 Y61.757 E3.5012
G1 X124.017 Y64.911 E3.6733
G1 X124.056 Y64.965 E3.6761
G1 X126.248 Y68.300 E3.8482
G1 X126.282 Y68.356 E3.8510
G1 X128.208 Y71.854 E4.0231
G1 X128.237 Y71.913 E4.0260
G1 X129.881 Y75.551 E4.1981
G1 X129.905 Y75.612 E4.2009
G1 X131.260 Y79.366 E4.3729
G1 X131.280 Y79.430 E4.3758
G1 X132.333 Y83.281 E4.5479
G1 X132.348 Y83.345 E4.5507
G1 X133.098 Y87.266 E4.7228
G1 X133.108 Y87.331 E4.7256
G1 X133.547 Y91.299 E4.8977
G1 X133.552 Y91.365 E4.9006
G1 X133.678 Y95.355 E5.0726
G1 X133.678 Y95.420 E5.0755
G1 X133.493 Y99.408 E5.2475
G1 X133.487 Y99.475 E5.2504
G1 X132.987 Y103.434 E5.4225
G1 X132.976 Y103.499 E5.4253
G1 X132.169 Y107.409 E5.5974
G1 X132.153 Y107.473 E5.6002
G1 X131.040 Y111.307 E5.7723
G1 X131.019 Y111.369 E5.7751
G1 X129.610 Y115.103 E5.9472
G1 X129.584 Y115.164 E5.9500
G1 X127.886 Y118.777 E6.1221
G1 X127.856 Y118.836 E6.1250
G1 X125.879 Y122.304 E6.2970
G1 X125.844 Y122.360 E6.2999
G1 X123.601 Y125.662 E6.4719
G1 X123.562 Y125.715 E6.4748
G1 X121.067 Y128.833 E6.6469
G1 X121.024 Y128.883 E6.6498
G1 X118.293 Y131.793 E6.8218
G1 X118.246 Y131.839 E6.8246
G1 X115.295 Y134.527 E6.9967
G1 X115.244 Y134.570 E6.9996
G1 X112.090 Y137.017 E7.1716
G1 X112.037 Y137.055 E7.1744
G1 X108.702 Y139.249 E7.3465
G1 X108.645 Y139.283 E7.3494
G1 X105.147 Y141.207 E7.5215
G1 X105.088 Y141.236 E7.5243
G1 X101.450 Y142.881 E7.6964
G1 X101.388 Y142.906 E7.6993
G1 X97.632 Y144.259 E7.8713
G1 X97.570 Y144.279 E7.8742
G1 X93.720 Y145.334 E8.0462
G1 X93.656 Y145.349 E8.0491
G1 X89.735 Y146.097 E8.2211
G1 X89.670 Y146.107 E8.2240
G1 X85.703 Y146.548 E8.3960
G1 X85.636 Y146.553 E8.3989
G1 X81.646 Y146.679 E8.5710
G1 X81.580 Y146.679 E8.5738
G1 X77.592 Y146.492 E8.7459
G1 X77.527 Y146.486 E8.7488
G1 X73.568 Y145.988 E8.9208
G1 X73.503 Y145.977 E8.9236
G1 X69.592 Y145.170 E9.0957
G1 X69.528 Y145.154 E9.0986
G1 X65.694 Y144.041 E9.2707
G1 X65.631 Y144.020 E9.2735
G1 X61.896 Y142.609 E9.4456
G1 X61.835 Y142.583 E9.4485
G1 X58.223 Y140.885 E9.6205
G1 X58.165 Y140.855 E9.6234
G1 X54.697 Y138.878 E9.7954
G1 X54.642 Y138.844 E9.7982
G1 X51.339 Y136.603 E9.9702
G1 X51.286 Y136.563 E9.9731
G1 X48.168 Y134.068 E10.1452
G1 X48.118 Y134.025 E10.1481
G1 X45.208 Y131.293 E10.3201
G1 X45.162 Y131.246 E10.3230
G1 X42.474 Y128.294 E10.4951
G1 X42.431 Y128.244 E10.4979
G1 X39.983 Y125.091 E10.6700
G1 X39.944 Y125.037 E10.6728
G1 X37.752 Y121.700 E10.8450
G1 X37.718 Y121.643 E10.8478
G1 X35.794 Y118.146 E11.0199
G1 X35.765 Y118.087 E11.0227
G1 X34.120 Y114.451 E11.1947
G1 X34.095 Y114.389 E11.1976
G1 X32.742 Y110.633 E11.3697
G1 X32.722 Y110.571 E11.3725
G1 X31.667 Y106.721 E11.5445
G1 X31.652 Y106.657 E11.5474
G1 X30.902 Y102.736 E11.7195
G1 X30.892 Y102.671 E11.7223
G1 X30.453 Y98.703 E11.8944
G1 X30.448 Y98.637 E11.8972
G1 X30.322 Y94.647 E12.0693
G1 X30.322 Y94.581 E12.0722
G1 X30.509 Y90.593 E12.2442
G1 X30.515 Y90.528 E12.2471
G1 X31.013 Y86.567 E12.4192
G1 X31.024 Y86.501 E12.4220
G1 X31.831 Y82.593 E12.5941
G1 X31.847 Y82.529 E12.5969
G1 X32.960 Y78.695 E12.7690
G1 X32.981 Y78.633 E12.7718
G1 X34.390 Y74.897 E12.9439
G1 X34.416 Y74.836 E12.9468
G1 X36.114 Y71.224 E13.1188
G1 X36.144 Y71.166 E13.1216
G1 X38.121 Y67.697 E13.2938
G1 X38.156 Y67.640 E13.2966
G1 X40.399 Y64.338 E13.4687
G1 X40.438 Y64.285 E13.4715
G1 X42.933 Y61.169 E13.6436
G1 X42.976 Y61.120 E13.6464
G1 X45.707 Y58.207 E13.8185
G1 X45.755 Y58.161 E13.8214
G1 X48.264 Y55.878 E13.9676
G1 X48.708 Y55.474 F1800
G1 X49.024 Y55.836 F6000
G92 E0
G1 X49.059 Y55.806 E0.0020 F1800
G1 X52.197 Y53.369 E0.1732
G1 X52.235 Y53.341 E0.1753
G1 X55.554 Y51.159 E0.3465
G1 X55.595 Y51.135 E0.3485
G1 X59.076 Y49.218 E0.5198
G1 X59.118 Y49.197 E0.5219
G1 X62.739 Y47.562 E0.6931
G1 X62.783 Y47.544 E0.6952
G1 X66.521 Y46.196 E0.8665
G1 X66.566 Y46.182 E0.8685
G1 X70.398 Y45.131 E1.0397
G1 X70.444 Y45.121 E1.0418
G1 X74.346 Y44.376 E1.2130
G1 X74.393 Y44.369 E1.2151
G1 X78.341 Y43.932 E1.3863
G1 X78.388 Y43.928 E1.3883
G1 X82.359 Y43.801 E1.5596
G1 X82.407 Y43.801 E1.5616
G1 X86.376 Y43.987 E1.7329
G1 X86.422 Y43.991 E1.7349
G1 X90.365 Y44.487 E1.9062
G1 X90.412 Y44.495 E1.9083
G1 X94.302 Y45.301 E2.0795
G1 X94.348 Y45.312 E2.0816
G1 X98.163 Y46.419 E2.2528
G1 X98.208 Y46.434 E2.2548
G1 X101.926 Y47.837 E2.4261
G1 X101.969 Y47.855 E2.4281
G1 X105.564 Y49.545 E2.5994
G1 X105.606 Y49.567 E2.6014
G1 X109.059 Y51.534 E2.7727
G1 X109.099 Y51.559 E2.7747
G1 X112.386 Y53.792 E2.9460
G1 X112.424 Y53.820 E2.9480
G1 X115.524 Y56.303 E3.1193
G1 X115.560 Y56.334 E3.1213
G1 X118.458 Y59.052 E3.2926
