; G-Code generated by Simplify3D(R) Version 3.1.1
; ene 14, 2018 at 1:58:07 
; Settings Summary
;   processName,Process1
;   applyToModels,Pulsador Plano Pequeño
;   profileName,PLA
;   profileVersion,2017-12-23 11:31:10
;   baseProfile,Default
;   printMaterial,PLA
;   printQuality,Medium
;   printExtruders,
;   extruderName,Primary Extruder
;   extruderToolheadNumber,0
;   extruderDiameter,0.4
;   extruderAutoWidth,1
;   extruderWidth,0.48
;   extrusionMultiplier,0.9
;   extruderUseRetract,1
;   extruderRetractionDistance,1.5
;   extruderExtraRestartDistance,0
;   extruderRetractionZLift,0.6
;   extruderRetractionSpeed,4200
;   extruderUseCoasting,1
;   extruderCoastingDistance,0.6
;   extruderUseWipe,0
;   extruderWipeDistance,5
;   primaryExtruder,0
;   layerHeight,0.2
;   topSolidLayers,12
;   bottomSolidLayers,6
;   perimeterOutlines,4
;   printPerimetersInsideOut,1
;   startPointOption,2
;   startPointOriginX,0
;   startPointOriginY,0
;   startPointOriginZ,300
;   sequentialIslands,0
;   spiralVaseMode,0
;   firstLayerHeightPercentage,80
;   firstLayerWidthPercentage,120
;   firstLayerUnderspeed,0.5
;   useRaft,0
;   raftExtruder,0
;   raftLayers,3
;   raftOffset,3
;   raftSeparationDistance,0.14
;   raftInfill,85
;   disableRaftBaseLayers,0
;   useSkirt,1
;   skirtExtruder,0
;   skirtLayers,1
;   skirtOutlines,2
;   skirtOffset,4
;   usePrimePillar,0
;   primePillarExtruder,999
;   primePillarWidth,12
;   primePillarLocation,7
;   primePillarSpeedMultiplier,1
;   useOozeShield,0
;   oozeShieldExtruder,999
;   oozeShieldOffset,2
;   oozeShieldOutlines,1
;   oozeShieldSidewallShape,1
;   oozeShieldSidewallAngle,30
;   oozeShieldSpeedMultiplier,1
;   infillExtruder,0
;   internalInfillPattern,Triangular
;   externalInfillPattern,Rectilinear
;   infillPercentage,30
;   outlineOverlapPercentage,25
;   infillExtrusionWidthPercentage,150
;   minInfillLength,0
;   infillLayerInterval,1
;   infillAngles,0,60,-60
;   overlapInfillAngles,1
;   generateSupport,0
;   supportExtruder,0
;   supportInfillPercentage,50
;   supportExtraInflation,0
;   denseSupportLayers,0
;   denseSupportInfillPercentage,60
;   supportLayerInterval,1
;   supportHorizontalPartOffset,0.3
;   supportUpperSeparationLayers,1
;   supportLowerSeparationLayers,1
;   supportType,0
;   supportGridSpacing,4
;   maxOverhangAngle,45
;   supportAngles,0
;   temperatureName,Primary Extruder,Cama Caliente
;   temperatureNumber,0,1
;   temperatureSetpointCount,1,1
;   temperatureSetpointLayers,1,1
;   temperatureSetpointTemperatures,210,40
;   temperatureStabilizeAtStartup,1,1
;   temperatureHeatedBed,0,1
;   temperatureRelayBetweenLayers,0,0
;   temperatureRelayBetweenLoops,0,0
;   fanLayers,1,2
;   fanSpeeds,0,100
;   blipFanToFullPower,0
;   adjustSpeedForCooling,1
;   minSpeedLayerTime,15
;   minCoolingSpeedSlowdown,35
;   increaseFanForCooling,0
;   minFanLayerTime,45
;   maxCoolingFanSpeed,100
;   increaseFanForBridging,0
;   bridgingFanSpeed,100
;   use5D,1
;   relativeEdistances,0
;   allowEaxisZeroing,1
;   independentExtruderAxes,0
;   includeM10123,0
;   stickySupport,1
;   applyToolheadOffsets,0
;   gcodeXoffset,0
;   gcodeYoffset,0
;   gcodeZoffset,0
;   overrideMachineDefinition,1
;   machineTypeOverride,0
;   strokeXoverride,210
;   strokeYoverride,190
;   strokeZoverride,180
;   originOffsetXoverride,0
;   originOffsetYoverride,0
;   originOffsetZoverride,0
;   homeXdirOverride,-1
;   homeYdirOverride,-1
;   homeZdirOverride,-1
;   flipXoverride,1
;   flipYoverride,-1
;   flipZoverride,1
;   toolheadOffsets,0,0|0,0|0,0|0,0|0,0|0,0
;   overrideFirmwareConfiguration,0
;   firmwareTypeOverride,RepRap (Marlin/Repetier/Sprinter)
;   GPXconfigOverride,r2
;   baudRateOverride,250000
;   overridePrinterModels,0
;   printerModelsOverride
;   startingGcode,G21 ; metric values,G90 ;absolute positioning,M82 ;set extruder to absolute mode,G28 X0 Y0 ;move  X/Y to min endstops,G28 Z0 ;move Z to min endstops,G92 E0 ;zero the extruded length,G1 Z5 ;move nozzle close to bed,M117 Imprimiendo...;put printing message on LCD screen
;   layerChangeGcode,
;   retractionGcode,
;   toolChangeGcode,
;   endingGcode,G10 ;,G92 Z0 ;,G1 Z5 ;,G1 X0 Y0 ;move X/Y to min endstops,M104 S0 ; turn off extruder,M140 S0 ; turn off bed,M84 ; disable motors
;   exportFileFormat,gcode
;   celebration,0
;   celebrationSong,Random Song
;   postProcessing,
;   defaultSpeed,3600
;   outlineUnderspeed,0.5
;   solidInfillUnderspeed,0.8
;   supportUnderspeed,0.7
;   rapidXYspeed,6000
;   rapidZspeed,1002
;   minBridgingArea,50
;   bridgingExtraInflation,0
;   bridgingExtrusionMultiplier,1
;   bridgingSpeedMultiplier,1
;   filamentDiameter,1.75
;   filamentPricePerKg,46
;   filamentDensity,1.25
;   useMinPrintHeight,0
;   minPrintHeight,0
;   useMaxPrintHeight,0
;   maxPrintHeight,0
;   useDiaphragm,0
;   diaphragmLayerInterval,20
;   robustSlicing,1
;   mergeAllIntoSolid,0
;   onlyRetractWhenCrossingOutline,1
;   retractBetweenLayers,0
;   useRetractionMinTravel,1
;   retractionMinTravel,3
;   retractWhileWiping,0
;   onlyWipeOutlines,1
;   avoidCrossingOutline,0
;   maxMovementDetourFactor,3
;   toolChangeRetractionDistance,12
;   toolChangeExtraRestartDistance,-0.5
;   toolChangeRetractionSpeed,600
;   allowThinWallGapFill,1
;   thinWallAllowedOverlapPercentage,25
;   horizontalSizeCompensation,0
G90
M82
M106 S0
M140 S40
M190 S40
M104 S210 T0
M109 S210 T0
G21 ; metric values
G90 ;absolute positioning
M82 ;set extruder to absolute mode
G28 X0 Y0 ;move  X/Y to min endstops
G28 Z0 ;move Z to min endstops
G92 E0 ;zero the extruded length
G1 Z5 ;move nozzle close to bed
M117 Imprimiendo...;put printing message on LCD screen
G92 E0
G1 E-1.5000 F4200
G1 Z0.760 F1002
; layer 1, Z = 0.16
T0
; tool H0.200 W0.576
; skirt
G1 X71.050 Y67.275 F6000
G1 Z0.160 F1002
G1 E0.0000 F1260
G92 E0
G1 X77.275 Y61.050 E0.3795 F1800
G1 X77.393 Y60.971 E0.3856
G1 X78.994 Y60.308 E0.4603
G1 X79.133 Y60.280 E0.4664
G1 X130.867 Y60.280 E2.6964
G1 X131.006 Y60.308 E2.7025
G1 X132.607 Y60.971 E2.7772
G1 X132.725 Y61.050 E2.7833
G1 X138.950 Y67.275 E3.1628
G1 X139.029 Y67.393 E3.1690
G1 X139.692 Y68.994 E3.2437
G1 X139.720 Y69.133 E3.2498
G1 X139.720 Y120.867 E5.4797
G1 X139.692 Y121.006 E5.4859
G1 X139.029 Y122.607 E5.5606
G1 X138.950 Y122.725 E5.5667
G1 X132.725 Y128.950 E5.9462
G1 X132.607 Y129.029 E5.9523
G1 X131.006 Y129.692 E6.0270
G1 X130.867 Y129.720 E6.0331
G1 X79.133 Y129.720 E8.2631
G1 X78.994 Y129.692 E8.2692
G1 X77.393 Y129.029 E8.3439
G1 X77.275 Y128.950 E8.3500
G1 X71.050 Y122.725 E8.7295
G1 X70.971 Y122.607 E8.7356
G1 X70.308 Y121.006 E8.8103
G1 X70.280 Y120.867 E8.8165
G1 X70.280 Y69.133 E11.0464
G1 X70.308 Y68.994 E11.0525
G1 X70.796 Y67.816 E11.1075
G1 X70.971 Y67.393 F1800
G1 X71.050 Y67.275 F1800
G1 X71.423 Y67.581 F6000
G92 E0
G1 X77.581 Y61.423 E0.3754 F1800
G1 X77.620 Y61.396 E0.3775
G1 X79.134 Y60.769 E0.4481
G1 X79.181 Y60.760 E0.4501
G1 X130.819 Y60.760 E2.6760
G1 X130.866 Y60.769 E2.6781
G1 X132.380 Y61.396 E2.7487
G1 X132.419 Y61.423 E2.7507
G1 X138.577 Y67.581 E3.1262
G1 X138.604 Y67.620 E3.1282
G1 X139.231 Y69.134 E3.1988
G1 X139.240 Y69.181 E3.2009
G1 X139.240 Y120.819 E5.4268
G1 X139.231 Y120.866 E5.4288
G1 X138.604 Y122.379 E5.4994
G1 X138.577 Y122.419 E5.5015
G1 X132.419 Y128.577 E5.8769
G1 X132.380 Y128.604 E5.8789
G1 X130.866 Y129.231 E5.9496
G1 X130.819 Y129.240 E5.9516
G1 X79.181 Y129.240 E8.1775
G1 X79.134 Y129.231 E8.1795
G1 X77.620 Y128.604 E8.2502
G1 X77.581 Y128.577 E8.2522
G1 X71.423 Y122.419 E8.6276
G1 X71.396 Y122.379 E8.6297
G1 X70.769 Y120.866 E8.7003
G1 X70.760 Y120.819 E8.7023
G1 X70.760 Y69.181 E10.9282
G1 X70.769 Y69.134 E10.9303
G1 X71.185 Y68.131 E10.9771
G1 X71.396 Y67.620 F1800
G1 X71.423 Y67.581 F1800
G92 E0
G1 E-1.5000 F4200
G1 Z0.760 F1002
; inner perimeter
G1 X77.016 Y70.835 F6000
G1 Z0.160 F1002
G1 E0.0000 F4200
G92 E0
G1 X80.835 Y67.016 E0.2328 F1575
G1 X129.165 Y67.016 E2.3161
G1 X132.984 Y70.835 E2.5489
G1 X132.984 Y119.165 E4.6322
G1 X129.165 Y122.984 E4.8650
G1 X80.835 Y122.984 E6.9482
G1 X77.016 Y119.165 E7.1810
G1 X77.016 Y71.435 E9.2384
G1 X77.016 Y70.835 F1575
; inner perimeter
G1 X76.440 Y70.596 F6000
G92 E0
G1 X80.596 Y66.440 E0.2534 F1350
G1 X129.404 Y66.440 E2.3572
G1 X133.560 Y70.596 E2.6106
G1 X133.560 Y119.404 E4.7144
G1 X129.404 Y123.560 E4.9678
G1 X80.596 Y123.560 E7.0716
G1 X76.440 Y119.404 E7.3250
G1 X76.440 Y71.196 E9.4030
G1 X76.440 Y70.596 F1350
; inner perimeter
G1 X75.864 Y70.358 F6000
G92 E0
G1 X80.358 Y65.864 E0.2739 F1125
G1 X129.642 Y65.864 E2.3984
G1 X134.136 Y70.358 E2.6723
G1 X134.136 Y119.642 E4.7967
G1 X129.642 Y124.136 E5.0706
G1 X80.358 Y124.136 E7.1951
G1 X75.864 Y119.642 E7.4690
G1 X75.864 Y70.958 E9.5675
G1 X75.864 Y70.358 F1125
; outer perimeter
G1 X75.288 Y70.119 F6000
G92 E0
G1 X80.119 Y65.288 E0.2945 F900
G1 X129.881 Y65.288 E2.4395
G1 X134.712 Y70.119 E2.7340
G1 X134.712 Y119.881 E4.8790
G1 X129.881 Y124.712 E5.1735
G1 X80.119 Y124.712 E7.3185
G1 X75.288 Y119.881 E7.6130
G1 X75.288 Y70.719 E9.7321
G1 X75.288 Y70.119 F900
; inner perimeter
G1 X82.507 Y73.983 F6000
G92 E0
G1 X82.104 Y74.956 E0.0454 F1575
G1 X81.967 Y76.000 E0.0908
G1 X82.104 Y77.044 E0.1362
G1 X82.507 Y78.017 E0.1815
G1 X83.148 Y78.852 E0.2269
G1 X83.983 Y79.493 E0.2723
G1 X84.956 Y79.896 E0.3177
G1 X86.000 Y80.033 E0.3631
G1 X87.044 Y79.896 E0.4085
G1 X88.017 Y79.493 E0.4539
G1 X88.852 Y78.852 E0.4993
G1 X89.493 Y78.017 E0.5446
G1 X89.896 Y77.044 E0.5900
G1 X90.033 Y76.000 E0.6354
G1 X89.896 Y74.956 E0.6808
G1 X89.493 Y73.983 E0.7262
G1 X88.852 Y73.148 E0.7716
G1 X88.017 Y72.507 E0.8170
G1 X87.044 Y72.104 E0.8623
G1 X86.000 Y71.967 E0.9077
G1 X84.956 Y72.104 E0.9531
G1 X83.983 Y72.507 E0.9985
G1 X83.148 Y73.148 E1.0439
G1 X82.872 Y73.507 E1.0634
G1 X82.507 Y73.983 F1575
; inner perimeter
G1 X83.010 Y74.274 F6000
G92 E0
G1 X82.665 Y75.106 E0.0388 F1350
G1 X82.548 Y76.000 E0.0777
G1 X82.665 Y76.894 E0.1165
G1 X83.010 Y77.726 E0.1554
G1 X83.559 Y78.441 E0.1942
G1 X84.274 Y78.990 E0.2331
G1 X85.106 Y79.335 E0.2719
G1 X86.000 Y79.452 E0.3108
G1 X86.894 Y79.335 E0.3496
G1 X87.726 Y78.990 E0.3885
G1 X88.441 Y78.441 E0.4273
G1 X88.990 Y77.726 E0.4662
G1 X89.335 Y76.894 E0.5050
G1 X89.452 Y76.000 E0.5439
G1 X89.335 Y75.106 E0.5827
G1 X88.990 Y74.274 E0.6216
G1 X88.441 Y73.559 E0.6604
G1 X87.726 Y73.010 E0.6993
G1 X86.894 Y72.665 E0.7381
G1 X86.000 Y72.548 E0.7770
G1 X85.106 Y72.665 E0.8158
G1 X84.274 Y73.010 E0.8547
G1 X83.559 Y73.559 E0.8935
G1 X83.375 Y73.798 E0.9065
G1 X83.010 Y74.274 F1350
; inner perimeter
G1 X83.513 Y74.564 F6000
G92 E0
G1 X83.226 Y75.257 E0.0323 F1125
G1 X83.129 Y76.000 E0.0646
G1 X83.226 Y76.743 E0.0969
G1 X83.513 Y77.436 E0.1292
G1 X83.970 Y78.030 E0.1616
G1 X84.564 Y78.487 E0.1939
G1 X85.257 Y78.774 E0.2262
G1 X86.000 Y78.871 E0.2585
G1 X86.743 Y78.774 E0.2908
G1 X87.436 Y78.487 E0.3231
G1 X88.030 Y78.030 E0.3554
G1 X88.487 Y77.436 E0.3877
G1 X88.774 Y76.743 E0.4201
G1 X88.871 Y76.000 E0.4524
G1 X88.774 Y75.257 E0.4847
G1 X88.487 Y74.564 E0.5170
G1 X88.030 Y73.970 E0.5493
G1 X87.436 Y73.513 E0.5816
G1 X86.743 Y73.226 E0.6139
G1 X86.000 Y73.129 E0.6462
G1 X85.257 Y73.226 E0.6785
G1 X84.564 Y73.513 E0.7109
G1 X83.970 Y73.970 E0.7432
G1 X83.878 Y74.088 E0.7496
G1 X83.513 Y74.564 F1125
; outer perimeter
G1 X84.016 Y74.855 F6000
G92 E0
G1 X83.788 Y75.407 E0.0258 F900
G1 X83.710 Y76.000 E0.0515
G1 X83.788 Y76.593 E0.0773
G1 X84.016 Y77.145 E0.1031
G1 X84.380 Y77.620 E0.1289
G1 X84.855 Y77.984 E0.1546
G1 X85.407 Y78.212 E0.1804
G1 X86.000 Y78.290 E0.2062
G1 X86.593 Y78.212 E0.2320
G1 X87.145 Y77.984 E0.2577
G1 X87.620 Y77.620 E0.2835
G1 X87.984 Y77.145 E0.3093
G1 X88.212 Y76.593 E0.3351
G1 X88.290 Y76.000 E0.3608
G1 X88.212 Y75.407 E0.3866
G1 X87.984 Y74.855 E0.4124
G1 X87.620 Y74.380 E0.4382
G1 X87.145 Y74.016 E0.4639
G1 X86.593 Y73.788 E0.4897
G1 X86.000 Y73.710 E0.5155
G1 X85.407 Y73.788 E0.5413
G1 X84.855 Y74.016 E0.5670
G1 X84.382 Y74.379 E0.5927
G1 X84.380 Y74.380 F900
G1 X84.016 Y74.855 F900
G92 E0
G1 E-1.5000 F4200
G1 Z0.760 F1002
; inner perimeter
G1 X89.420 Y79.420 F6000
G1 Z0.160 F1002
G1 E0.0000 F4200
G92 E0
G1 X85.919 Y83.983 E0.2479 F1575
G1 X83.717 Y89.297 E0.4959
G1 X82.967 Y95.000 E0.7438
G1 X83.717 Y100.703 E0.9917
G1 X85.919 Y106.017 E1.2397
G1 X89.420 Y110.580 E1.4876
G1 X93.983 Y114.081 E1.7355
G1 X99.297 Y116.283 E1.9835
G1 X105.000 Y117.033 E2.2314
G1 X110.703 Y116.283 E2.4794
G1 X116.017 Y114.081 E2.7273
G1 X120.580 Y110.580 E2.9752
G1 X124.081 Y106.017 E3.2232
G1 X126.283 Y100.703 E3.4711
G1 X127.033 Y95.000 E3.7190
G1 X126.283 Y89.297 E3.9670
G1 X124.081 Y83.983 E4.2149
G1 X120.580 Y79.420 E4.4628
G1 X116.017 Y75.919 E4.7108
G1 X110.703 Y73.717 E4.9587
G1 X105.000 Y72.967 E5.2066
G1 X99.297 Y73.717 E5.4546
G1 X93.983 Y75.919 E5.7025
G1 X89.896 Y79.055 E5.9246
G1 X89.420 Y79.420 F1575
; inner perimeter
G1 X89.831 Y79.831 F6000
G92 E0
G1 X86.422 Y84.274 E0.2414 F1350
G1 X84.279 Y89.448 E0.4828
G1 X83.548 Y95.000 E0.7242
G1 X84.279 Y100.552 E0.9656
G1 X86.422 Y105.726 E1.2070
G1 X89.831 Y110.169 E1.4484
G1 X94.274 Y113.578 E1.6898
G1 X99.448 Y115.721 E1.9312
G1 X105.000 Y116.452 E2.1726
G1 X110.552 Y115.721 E2.4140
G1 X115.726 Y113.578 E2.6554
G1 X120.169 Y110.169 E2.8968
G1 X123.578 Y105.726 E3.1382
G1 X125.721 Y100.552 E3.3796
G1 X126.452 Y95.000 E3.6210
G1 X125.721 Y89.448 E3.8624
G1 X123.578 Y84.274 E4.1038
G1 X120.169 Y79.831 E4.3452
G1 X115.726 Y76.422 E4.5866
G1 X110.552 Y74.279 E4.8280
G1 X105.000 Y73.548 E5.0694
G1 X99.448 Y74.279 E5.3107
G1 X94.274 Y76.422 E5.5521
G1 X90.307 Y79.466 E5.7677
G1 X89.831 Y79.831 F1350
; inner perimeter
G1 X90.242 Y80.242 F6000
G92 E0
G1 X86.925 Y84.564 E0.2349 F1125
G1 X84.840 Y89.598 E0.4697
G1 X84.129 Y95.000 E0.7046
G1 X84.840 Y100.402 E0.9394
G1 X86.925 Y105.436 E1.1743
G1 X90.242 Y109.758 E1.4092
G1 X94.564 Y113.075 E1.6440
G1 X99.598 Y115.160 E1.8789
G1 X105.000 Y115.871 E2.1137
G1 X110.402 Y115.160 E2.3486
G1 X115.436 Y113.075 E2.5835
G1 X119.758 Y109.758 E2.8183
G1 X123.075 Y105.436 E3.0532
G1 X125.160 Y100.402 E3.2880
G1 X125.871 Y95.000 E3.5229
G1 X125.160 Y89.598 E3.7578
G1 X123.075 Y84.564 E3.9926
G1 X119.758 Y80.242 E4.2275
G1 X115.436 Y76.925 E4.4623
G1 X110.402 Y74.840 E4.6972
G1 X105.000 Y74.129 E4.9321
G1 X99.598 Y74.840 E5.1669
G1 X94.564 Y76.925 E5.4018
G1 X90.718 Y79.876 E5.6108
G1 X90.242 Y80.242 F1125
; outer perimeter
G1 X90.652 Y80.652 F6000
G92 E0
G1 X87.428 Y84.855 E0.2283 F900
G1 X85.401 Y89.748 E0.4566
G1 X84.710 Y95.000 E0.6850
G1 X85.401 Y100.252 E0.9133
G1 X87.428 Y105.145 E1.1416
G1 X90.652 Y109.348 E1.3699
G1 X94.855 Y112.572 E1.5983
G1 X99.748 Y114.599 E1.8266
G1 X105.000 Y115.290 E2.0549
G1 X110.252 Y114.599 E2.2832
G1 X115.145 Y112.572 E2.5115
G1 X119.348 Y109.348 E2.7399
G1 X122.572 Y105.145 E2.9682
G1 X124.599 Y100.252 E3.1965
G1 X125.290 Y95.000 E3.4248
G1 X124.599 Y89.748 E3.6532
G1 X122.572 Y84.855 E3.8815
G1 X119.348 Y80.652 E4.1098
G1 X115.145 Y77.428 E4.3381
G1 X110.252 Y75.401 E4.5665
G1 X105.000 Y74.710 E4.7948
G1 X99.748 Y75.401 E5.0231
G1 X94.855 Y77.428 E5.2514
G1 X91.128 Y80.287 E5.4539
G1 X90.652 Y80.652 F900
G92 E0
G1 E-1.5000 F4200
G1 Z0.760 F1002
; inner perimeter
G1 X84.956 Y110.104 F6000
G1 Z0.160 F1002
G1 E0.0000 F4200
G92 E0
G1 X83.983 Y110.507 E0.0454 F1575
G1 X83.148 Y111.148 E0.0908
G1 X82.507 Y111.983 E0.1362
G1 X82.104 Y112.956 E0.1815
G1 X81.967 Y114.000 E0.2269
G1 X82.104 Y115.044 E0.2723
G1 X82.507 Y116.017 E0.3177
G1 X83.148 Y116.852 E0.3631
G1 X83.983 Y117.493 E0.4085
G1 X84.956 Y117.896 E0.4539
G1 X86.000 Y118.033 E0.4993
G1 X87.044 Y117.896 E0.5446
G1 X88.017 Y117.493 E0.5900
G1 X88.852 Y116.852 E0.6354
G1 X89.493 Y116.017 E0.6808
G1 X89.896 Y115.044 E0.7262
G1 X90.033 Y114.000 E0.7716
G1 X89.896 Y112.956 E0.8170
G1 X89.493 Y111.983 E0.8623
G1 X88.852 Y111.148 E0.9077
G1 X88.017 Y110.507 E0.9531
G1 X87.044 Y110.104 E0.9985
G1 X86.000 Y109.967 E1.0439
G1 X85.551 Y110.026 E1.0634
G1 X84.956 Y110.104 F1575
; inner perimeter
G1 X85.106 Y110.665 F6000
G92 E0
G1 X84.274 Y111.010 E0.0389 F1350
G1 X83.559 Y111.559 E0.0777
G1 X83.010 Y112.274 E0.1165
G1 X82.665 Y113.106 E0.1554
